!!!!SEGMENT: pl-wtm--r-1461--030_stefani-jozef--wszechstronne-cwiczenia-glosowe-andantino.krn
!!!cenid: 18xx:2207
!!!COM: Stefani, Józef
!!!COM-rismID: pe30024097
!!!CDT: 1800/04/16-1876/03/19
!!!CNT: Polish
!!!GTL: Wszechstronne ćwiczenia głosowe
!!!OTL: Andantino
!!!OMV: 030
!!!PDT:
!!!AGN: Secular
!!!SMS-siglum: PL-Wtm
!!!SMS-shelfmark: R 1461
!!!SMS-shelfwork: 001-030 G
!!!SMS-variant:
!!!SMS-altvar:
!!!NIFC-rismSourceID: 1001120710
!!!NIFC-rismChildID: 1001120710
!!!NIFC-islandoraID: pl-wtm:25869
!!!URL-pdf-islandora: https://repozytorium.nifc.pl/islandora/object/pl-wtm%3A25869/datastream/PDF/view
!!!URL-scan: https://polish.musicsources.pl/pl/lokalizacje/galeria/rekopisy/6276/27 @EN{Scan on Polish Music Sources Website} @PL{Skany w portalu Dziedzictwo Muzyki Polskiej w otwartym dostępie}
!!!ONB-nifc: UWAGA: skan 0027, s. 50 – skan 0028, s. 52
!!!OMD: Andantino.
!!!AIN: 1 empty 1 tenor
!!!key:
**kern	**kern	**dynam	**kern	**dynam
*part2	*part2	*part2	*part1	*part1
*staff3	*staff2	*	*staff1	*
*Iempty	*Iforte	*	*Itenor	*
*	*I"Fortepian	*	*I"Soprano/Tenore	*
*	*I'pf	*	*I'S/T	*
*clefF4	*clefG2	*	*clefG2	*
*k[]	*k[]	*	*k[]	*
*a:	*a:	*	*a:	*
*M6/8	*M6/8	*	*M6/8	*
*2\right	*2\right	*	*2\right	*
!!LO:TX:t=P:problem:all\right:global
8r	(>8e/	p	(>8e/	.
=1	=1	=1	=1	=1
*^	*	*	*	*
(>8AA\L	4AA/	4cc 4e/	.	4cc\	.
8A\J	.	.	.	.	.
8B 8BB\)	8ryy	8g#X 8e^</	.	8g#X^</	.
4c 4C\)	4.ryy	4a 4e/)	.	4a/	.
8r	.	(>8e/	.	(>8e/)	.
=2	=2	=2	=2	=2	=2
(>8AA\L	4AA/	4cc 4e/	.	4cc\	.
8A\J	.	.	.	.	.
8B 8BB\)	8ryy	8g#X 8e^</	.	8g#X^</	.
4c 4C\	4.ryy	4a 4e/)	.	4a,>/)	.
8r	.	8r	.	(>8ee\	.
*v	*v	*	*	*	*
=3	=3	=3	=3	=3
4G#X 4GG#X/	8r	.	4ff\	.
.	8bL 8f 8d/	.	.	.
8r	8bJ 8e 8d/	.	8ee\	.
4G# 4GG#/	8r	.	4b\)	.
.	8bL 8e 8d/	.	.	.
8r	8bJ 8e 8d/	.	8b\	.
=4	=4	=4	=4	=4
4A 4AA\	8r	.	(>8.dd\L	.
.	8aL 8e 8c/	.	.	.
.	.	.	16cc\K	.
8r	8aJ 8e 8c/	.	8b\J	.
4A 4AA\	4a 4e 4c/	.	4a,>/)	.
8r	8e/	.	(>8e/	.
!!LO:LB:g=original
=5	=5	=5	=5	=5
*^	*	*	*	*
8AA\L	4AA/	(>4cc 4e/	.	4cc\	.
8A\	.	.	.	.	.
8BJ 8BB\	8ryy	8g#X 8e^</	.	8g#X^</	.
4c 4C\	4.ryy	4a 4e/)	.	4a/)	.
8r	.	8e/	.	(>8e/	.
=6	=6	=6	=6	=6	=6
8AA\L	4AA/	(>4cc 4e/	.	4cc\	.
!LO:TX:t=P:problem=w źródle wytarta nuta 8AA	!	!	!	!	!
8A\	.	.	.	.	.
8BJ 8BB\	8ryy	8g#X 8e^</	.	8g#X^</	.
4c 4C\	4.ryy	4a 4e/)	.	4a,>/)	.
8c#X 8C#X\	.	8ee 8a#X 8gn^<\	.	8ee^<\	.
*v	*v	*	*	*	*
=7	=7	=7	=7	=7
!	!	!LO:DY:b:rj	!	!LO:DY:b:rj
4d 4D\	4dd 4b 4g\	f	(>8dd\L	f
.	.	.	8gg\	.
8r	8r	.	8b\J	.
4.D 4.DD/	4.f#X 4.d 4.c 4.A/	.	8.ee\L	.
.	.	.	16dd\L	.
.	.	.	16cc\	.
.	.	.	16a\JJ)	.
=8	=8	=8	=8	=8
8GL 8GG\	8gL 8d 8B/	.	<(8g/L	.
8D\	8g 8d 8B/	.	16f#X/L	.
.	.	.	16g/	.
8BB\J	8gJ 8d 8B/	.	16b/	.
.	.	.	16dd/JJ	.
4GG/	4g 4d 4B/	.	4gg,>\)	.
8r	8r	.	8g/	.
!!LO:LB:g=original
=9	=9	=9	=9	=9
!	!	!LO:DY:b:rj	!	!LO:DY:b:rj
4GG 4GGG/	8r	p	(>4ff\	p
.	(<8fL 8d 8B/	.	.	.
8r	8G/J)	.	8cc#X^<\	.
4GG 4GGG/	8r	.	4dd\)	.
.	(<8fL 8d 8B/	.	.	.
8r	8G/J)	.	(>8g/	.
=10	=10	=10	=10	=10
*rep	*	*	*	*
4GG 4GGG/	8r	.	4ee\	.
.	(<8eL 8c/	.	.	.
8r	8G/J)	.	8b^<\	.
4GG 4GGG/	8r	.	4cc,>\)	.
.	(<8eL 8c/	.	.	.
8r	8G/J)	.	8cc\	.
*Xrep	*	*	*	*
=11	=11	=11	=11	=11
.	.	.	(<32qqb/LLL	.
.	.	.	32qqcc/JJJ	.
*rep	*	*	*	*
4GG 4GGG/	8r	.	4b/)	.
.	(<8dL 8B/	.	.	.
8r	8G/J)	.	8g/	.
.	.	.	(<32qqcc/LLL	.
.	.	.	32qqdd/JJJ	.
4GG 4GGG/	8r	.	4cc/)	.
.	(<8eL 8c/	.	.	.
8r	8G/J)	.	8g/	.
*Xrep	*	*	*	*
=12	=12	=12	=12	=12
*rep	*	*	*	*
!	!	!	!	!LO:DY:b:rj
4GG 4GGG/	8r	f	(>8.b\L	f
.	(<8dL 8B/	.	.	.
.	.	.	16g\L	.
8r	8G/J)	.	16b\	.
.	.	.	16dd\JJ	.
4GG 4GGG/	8r	.	4gg,>\)	.
.	(<8dL 8B/	.	.	.
8r	8G/J)	.	8g/	.
*Xrep	*	*	*	*
!!LO:LB:g=original
=13	=13	=13	=13	=13
!	!	!LO:DY:b:rj	!	!
4GG 4GGG/	8r	p	(>4ff\	.
.	8fL 8d 8B/	.	.	.
8r	8G/J	.	8cc#X^<\	.
4GG 4GGG/	8r	.	4dd\)	.
.	8fL 8d 8B/	.	.	.
8r	8G/J	.	(>8g/	.
=14	=14	=14	=14	=14
4C 4CC/	8r	.	4ee\	.
.	8eL 8c/	.	.	.
8r	8G/J	.	8b^<\	.
4C 4CC/	8r	.	4cc,>\)	.
.	8eL 8c/	.	.	.
8r	8G/J	.	(>16cc\LL	.
.	.	.	16b\JJ)	.
=15	=15	=15	=15	=15
4F 4FF/	8r	.	4a/	.
.	(<8fL 8c/	.	.	.
8r	8A/J)	.	8a/	.
.	.	.	(<8qb/	.
4F 4FF/	8r	.	8.a/L)	.
.	(<8fL 8c/	.	.	.
.	.	.	16g#X/K	.
8r	8A/J)	.	8a/J	.
=16	=16	=16	=16	=16
4E 4EE/	8r	.	(>4.b\	.
.	(<8g#XL 8B/	.	.	.
8r	8e/J)	.	.	.
4E 4EE/	8r	.	4ee,>\)	.
.	(<8g#L 8B/	.	.	.
8r	8e/J)	.	(>16cc\LL	.
.	.	.	16b\JJ)	.
!!LO:PB:g=original
=17	=17	=17	=17	=17
*	*^	*	*	*
4F 4FF/	8r	8ryy	.	4a/	.
.	(>8a/L	4A\	.	.	.
8r	8d#X/J	.	.	8a/	.
.	.	.	.	(<16qqa/LL	.
.	.	.	.	16qqb/JJ	.
4.F 4.FF/	8r)	8ryy	.	8.cc/L)	.
.	(>8a/L	4A\	.	.	.
.	.	.	.	16b/K	.
.	8d#X/J	.	.	8a/J	.
*	*v	*v	*	*	*
=18	=18	=18	=18	=18
4E 4EE/	8r)	.	(>16ee\LL	.
.	.	.	16dd#X\	.
.	(>8g#XL 8B/	.	16ee\	.
.	.	.	16b\	.
8r	8e/J	.	16g#X\	.
.	.	.	16b\JJ)	.
4E 4EE;>/	4g# 4B;>/)	.	4e;>/	.
8r	(>8e/	.	(>8e/	.
=19	=19	=19	=19	=19
*^	*	*	*	*
8AA\L	4AA/	4cc 4e/	.	4cc\	.
8A\	.	.	.	.	.
8BJ 8BB\	8ryy	8g#X 8e^</	.	8g#X^</	.
4c 4C\	4.ryy	4a 4e/)	.	4a/)	.
8r	.	(>8e/	.	(>8e/	.
=20	=20	=20	=20	=20	=20
8AA\L	4AA/	4cc 4e/	.	4cc\	.
8A\	.	.	.	.	.
8BJ 8BB\	8ryy	8g#X 8e^</	.	8g#X^</	.
4c 4C\	4.ryy	4a 4e/	.	4a,>/	.
8r	.	8r)	.	8ee\	.
!!LO:LB:g=original
*v	*v	*	*	*	*
=21	=21	=21	=21	=21
4G#X 4GG#X\	8r	.	4ff\	.
.	8bL 8f 8d/	.	.	.
8r	8bJ 8e 8d/	.	8ee\	.
4G# 4GG#\	8r	.	4b\)	.
.	8bL 8e 8d/	.	.	.
8r	8bJ 8e 8d/	.	8b\	.
=22	=22	=22	=22	=22
4A 4AA\	8r	.	(>8.dd\L	.
.	8aL 8e 8c/	.	.	.
.	.	.	16cc\K	.
8r	8aJ 8e 8c/	.	8b\J	.
4A 4AA\	4a 4e 4c/	.	4a,>/)	.
8r	(>8e/	.	(>8e/	.
=23	=23	=23	=23	=23
*^	*	*	*	*
8AA\L	4AA/	4cc 4e/	.	4cc\	.
8A\J	.	.	.	.	.
8B 8BB\	8ryy	8g#X 8e^</	.	8g#X^</	.
4c 4C\	4.ryy	4a 4e/)	.	4a/)	.
8r	.	(>8e/	.	(>8e/	.
=24	=24	=24	=24	=24	=24
8AA\L	4AA/	4cc 4e/	.	4cc\	.
8A\J	.	.	.	.	.
8B 8BB\	8ryy	8g#X 8e^</	.	8g#X^</	.
4c 4C\	4.ryy	4a 4e/)	.	4a,>/)	.
8r	.	8r	.	8ee\	<[
!!LO:LB:g=original
*v	*v	*	*	*	*
=25	=25	=25	=25	=25
*	*^	*	*	*
4D 4DD/	8r	4.ryy	.	4ggn\	>
!	!LO:TX:t=P:problem=w źródle wytarta nuta 8f	!	!	!	!
.	(<8bL 8d/	.	.	.	.
8r	8f/J)	.	.	8ff\	.
4D 4DD/	8r	8ryy	.	4dd\	]
.	8b/L	(<4d\	.	.	.
8r	8f/J)	.	.	8b\	.
=26	=26	=26	=26	=26	=26
.	.	.	.	(<32qqa/LLL	.
.	.	.	.	32qqb/JJJ	.
4E 4EE/	8r	8ryy	.	8.cc/L)	.
.	(>8a/L	4c\	.	.	.
.	.	.	.	16b/K	.
8r	8d/J)	.	.	8a/J	.
.	.	.	.	(<32qqg#X/LLL	.
.	.	.	.	32qqa/JJJ	.
4E 4EE/	8r	8ryy	.	8.b/L	.
.	(>8g#X/L	4B\	.	.	.
.	.	.	.	16a/K)	.
8r	8d/J)	.	.	8g#/J	.
*	*v	*v	*	*	*
=27||	=27||	=27||	=27||	=27||
!!!OMD: Agitato
!	!	!LO:DY:b:rj	!	!LO:DY:b:rj
8A 8AA\	8a 8e 8c/	f	(>16a\LL	f
.	.	.	16ee\	.
8r	8r	.	16dd#X\	.
.	.	.	16ee\	.
8r	8r	.	16dd#\	.
.	.	.	16ee\JJ)	.
8E 8EE/	8g#X 8e 8B/	.	(>16b\LL	.
.	.	.	16ee\	.
8r	8r	.	16dd#\	.
.	.	.	16ee\	.
8r	8r	.	16dd#\	.
.	.	.	16ee\JJ)	.
!!LO:LB:g=original
=28	=28	=28	=28	=28
8A 8AA\	8a 8e 8c/	.	(>16cc\LL	.
.	.	.	16ee\	.
8r	8r	.	16dd#X\	.
.	.	.	16ee\	.
8r	8r	.	16dd#\	.
.	.	.	16ee\JJ)	.
8E 8EE/	8g#X 8e 8d 8B/	.	(>16ff\LL	.
.	.	.	16ee\	.
8r	8r	.	16dd#\	.
.	.	.	16ee\	.
8r	8r	.	16ddn\	.
.	.	.	16b\JJ)	.
=29	=29	=29	=29	=29
!	!LO:TX:t=P:problem=w źródle przed 8r wytarte dźwięki	!	!	!
!	!	!	!	!LO:DY:b:rj
8A 8AA\	8r	.	(>16a\LL	p
.	.	.	16ee\	.
8r	8aL 8e 8c/	p	16dd#X\	.
.	.	.	16ee\	.
8r	8aJ 8e 8c/	.	16dd#\	.
.	.	.	16ee\)	.
8E 8EE/	8r	.	(>16b\	.
.	.	.	16ee\	.
8r	8g#XL 8e 8B/	.	16dd#\	.
.	.	.	16ee\	.
8r	8g#J 8e 8B/	.	16dd#\	.
.	.	.	16ee\JJ)	.
=30	=30	=30	=30	=30
8A 8AA\	8r	.	(>16cc\LL	.
.	.	.	16ee\	.
8r	8aL 8e 8c/	.	16dd#X\	.
.	.	.	16ee\	.
8r	8aJ 8e 8c/	.	16dd#\	.
.	.	.	16ee\JJ)	.
8E 8EE/	8r	.	(>16ff\LL	.
.	.	.	16ee\	.
8r	8g#XL 8e 8d 8B/	.	16dd#\	.
.	.	.	16ee\	.
8r	8g#J 8e 8d 8B/	.	16ddn\	.
.	.	.	16b\JJ)	.
=31	=31	=31	=31	=31
!	!	!LO:DY:b:rj	!	!LO:DY:b:rj
8AL 8AA\	8aL 8e 8c/	f	4.a/	f
8A 8AA\	8a 8e 8c/	.	.	.
8AJ 8AA\	8aJ 8e 8c/	.	.	.
8FL 8FF\	8aL 8f 8c/	.	4.aa\	.
8F 8FF\	8a 8f 8c/	.	.	.
!	!LO:TX:b:Bi:t=V&colon; S&colon;	!	!	!
8FJ 8FF\	8aJ 8f 8c/	.	.	.
!!LO:PB:g=original
=32	=32	=32	=32	=32
8DL 8DD/	8bL 8f 8d/	.	4.B/	.
8D 8DD/	8b 8f 8d/	.	.	.
8DJ 8DD/	8bJ 8f 8d/	.	.	.
8DL 8DD/	8bL 8f 8d/	.	4.ff\	.
8D 8DD/	8b 8f 8d/	.	.	.
8DJ 8DD/	8bJ 8f 8d/	.	.	.
=33	=33	=33	=33	=33
8E 8EE/	8a 8e 8c/	.	8.ee\L	.
8r	8r	.	.	.
.	.	.	16dd\K	.
8r	8r	.	8cc\J	.
8E 8EE/	8g#X 8e 8d 8B/	.	8b\L	.
.	.	.	(<8qdd/	.
8r	8r	.	8.cc\)	.
8r	8r	.	.	.
.	.	.	16b\Jk	.
=34	=34	=34	=34	=34
4.A 4.AA\	4.a 4.e 4.c/	.	(>4.a\	<
!	!	!LO:DY:b:rj	!	!
8A 8E 8AA\	8aa 8ee 8cc\	f	8aa\)	[
8r	8r	.	8r	.
8r;>	8r;>	.	8r;>	.
==	==	==	==	==
*-	*-	*-	*-	*-
!!!system-decoration: s1{(s2,s3)}
!!!RDF**kern: > = above
!!!RDF**kern: < = below
!!!RDF**kern: | = vertical stroke
!!!RDF**kern: N = linked
!!!RDF**kern: i = editorial accidental
!!!EED: Wojciech Jakubiak-Danek
!!!EEV: 2021-06-04
!!!ENC: Katarzyna Serwa
!!!END: 2021-05-18
!!!YEC: Copyright 2022 Narodowy Instytut Fryderyka Chopina (https://polishscores.org)
!!!YEM: License CC-BY-4.0 (https://creativecommons.org/licenses/by/4.0)
